usr/share/icons/biglinux-icons-material/24/actions/text_vert_kern.svg

<svg xmlns="http://www.w3.org/2000/svg" viewBox="0 0 24 24"><path d="M13 6v8h1v-1.361A4 4 0 0 0 17 14a4 4 0 0 0 4-4 4 4 0 0 0-4-4 4 4 0 0 0-3 1.361V6h-1zm4 1a3 3 0 0 1 3 3 3 3 0 0 1-3 3 3 3 0 0 1-3-3 3 3 0 0 1 3-3zM6 12a4 4 0 0 0-4 4 4 4 0 0 0 4 4 4 4 0 0 0 3-1.361V20h1v-8H9v1.361A4 4 0 0 0 6 12zm0 1a3 3 0 0 1 3 3 3 3 0 0 1-3 3 3 3 0 0 1-3-3 3 3 0 0 1 3-3z" style="fill:currentColor;fill-opacity:1;stroke:none;color:#dedede"/><path d="M11 4v16h1v-4h9v-1h-9V4h-1z" style="fill:currentColor;fill-opacity:1;stroke:none;color:#3daee9"/></svg>

<svg xmlns="http://www.w3.org/2000/svg" viewBox="0 0 24 24">
  <defs id="defs3051">
    <style type="text/css" id="current-color-scheme">
      .ColorScheme-Text {
        color:#363636;
      }
      .ColorScheme-Highlight {
        color:#3daee9;
      }
      </style>
  </defs>
 <path 
     style="fill:currentColor;fill-opacity:1;stroke:none" 
     d="M 13 6 L 13 10 L 13 14 L 14 14 L 14 12.638672 A 4 4 0 0 0 17 14 A 4 4 0 0 0 21 10 A 4 4 0 0 0 17 6 A 4 4 0 0 0 14 7.3613281 L 14 6 L 13 6 z M 17 7 A 3 3 0 0 1 20 10 A 3 3 0 0 1 17 13 A 3 3 0 0 1 14 10 A 3 3 0 0 1 17 7 z M 6 12 A 4 4 0 0 0 2 16 A 4 4 0 0 0 6 20 A 4 4 0 0 0 9 18.638672 L 9 20 L 10 20 L 10 16 L 10 12 L 9 12 L 9 13.361328 A 4 4 0 0 0 6 12 z M 6 13 A 3 3 0 0 1 9 16 A 3 3 0 0 1 6 19 A 3 3 0 0 1 3 16 A 3 3 0 0 1 6 13 z "
     class="ColorScheme-Text"
     />
 <path 
     style="fill:currentColor;fill-opacity:1;stroke:none" 
     d="M 11 4 L 11 20 L 12 20 L 12 16 L 21 16 L 21 15 L 12 15 L 12 4 L 11 4 z "
     class="ColorScheme-Highlight"
     />
</svg>
